src/iphone.svg

<svg xmlns="http://www.w3.org/2000/svg" class="dibsvg-svg dibsvg-iphone" viewBox="-110 0 425 425">
    <path d="M176.7-.5h-150C11.9-.5 0 10.9 0 24.9v369.6c0 14 11.9 25.4 26.6 25.4h150c14.7 0 26.6-11.4 26.6-25.4V24.9c.1-14-11.8-25.4-26.5-25.4zm-75.2 18.3c3.3 0 5.9 2.6 5.9 5.9s-2.6 5.9-5.9 5.9c-3.3 0-5.9-2.6-5.9-5.9s2.7-5.9 5.9-5.9zM80.6 41.3h41.8c1.9 0 3.5 1.9 3.5 4.2 0 2.3-1.6 4.2-3.5 4.2H80.6c-1.9 0-3.5-1.9-3.5-4.2 0-2.3 1.6-4.2 3.5-4.2zm19.9 358.6c-11.3 0-20.5-9.2-20.5-20.5s9.2-20.5 20.5-20.5 20.5 9.2 20.5 20.5-9.1 20.5-20.5 20.5zm80.2-60.7H22.1v-271h158.6v271z"/>
</svg>

<svg xmlns="http://www.w3.org/2000/svg" class="dibsvg-svg dibsvg-iphone" viewBox="-110 0 425 425">
    <path d="M176.7-0.5h-150C11.9-0.5,0,10.9,0,24.9v369.6c0,14,11.9,25.4,26.6,25.4h150c14.7,0,26.6-11.4,26.6-25.4V24.9C203.3,10.9,191.4-0.5,176.7-0.5z M101.5,17.8c3.3,0,5.9,2.6,5.9,5.9s-2.6,5.9-5.9,5.9c-3.3,0-5.9-2.6-5.9-5.9S98.3,17.8,101.5,17.8z M80.6,41.3h41.8c1.9,0,3.5,1.9,3.5,4.2c0,2.3-1.6,4.2-3.5,4.2H80.6c-1.9,0-3.5-1.9-3.5-4.2C77.1,43.2,78.7,41.3,80.6,41.3zM100.5,399.9c-11.3,0-20.5-9.2-20.5-20.5c0-11.3,9.2-20.5,20.5-20.5c11.3,0,20.5,9.2,20.5,20.5C121,390.7,111.9,399.9,100.5,399.9zM180.7,339.2H22.1v-271h158.6V339.2z"/>
</svg>
